img/layers.svg

<svg enable-background="new 0 0 512 512" height="300" viewBox="0 0 512 512" width="300" xmlns="http://www.w3.org/2000/svg"><path d="m379.7861328 171.9571533v-43.876709h-39.7431641v-43.8769531h-255.8393554v255.8395996h39.7426758v43.8769531h48.0107422v43.8764648h255.8393555v-255.8393554zm-255.8398437 157.0859375h-28.7426758v-233.8395996h233.8393555v32.8769531h-205.0966797zm48.0107421-157.0859375v162.5859375 38.3769531h-37.0107422v-32.8769531-5.5-195.4626465h199.5966797 5.5 28.7431641v32.876709h-34.2431641-157.0859375zm244.8393555 244.8393555h-233.8393555v-38.3764648-43.8769531-151.5859376h151.5859375 39.7431641 42.5102539z"/></svg>

<svg height="300px" width="300px" fill="#000000" 
    xmlns="http://www.w3.org/2000/svg" 
    xmlns:xlink="http://www.w3.org/1999/xlink" version="1.1" x="0px" y="0px" viewBox="0 0 512 512" style="enable-background:new 0 0 512 512;" xml:space="preserve">
    <g>
        <path d="M379.7861328,171.9571533v-43.876709h-39.7431641V84.2034912H84.2036133v255.8395996h39.7426758v43.8769531h48.0107422   v43.8764648h255.8393555V171.9571533H379.7861328z M123.9462891,329.0430908H95.2036133V95.2034912h233.8393555v32.8769531   H123.9462891V329.0430908z M171.9570312,171.9571533v162.5859375v38.3769531h-37.0107422v-32.8769531v-5.5V139.0804443h199.5966797   h5.5h28.7431641v32.876709h-34.2431641H177.4570312H171.9570312z M416.7963867,416.7965088H182.9570312v-38.3764648v-43.8769531   V182.9571533h151.5859375h39.7431641h42.5102539V416.7965088z"></path>
    </g>
</svg>
